packages/core/assets/Icons/arrow_circle_chevron_left_outlined.svg

<svg viewBox="0 0 20 20" fill="none" xmlns="http://www.w3.org/2000/svg">
<path d="M9.43754 9.99996L11.4167 8.02079C11.5695 7.86801 11.6459 7.67704 11.6459 7.44788C11.6459 7.21871 11.5695 7.02079 11.4167 6.85413C11.25 6.68746 11.0521 6.60413 10.823 6.60413C10.5938 6.60413 10.3959 6.68746 10.2292 6.85413L7.66671 9.41663C7.50004 9.58329 7.41671 9.77774 7.41671 9.99996C7.41671 10.2222 7.50004 10.4166 7.66671 10.5833L10.25 13.1666C10.4167 13.3333 10.6112 13.4132 10.8334 13.4062C11.0556 13.3993 11.25 13.3125 11.4167 13.1458C11.5695 12.9791 11.6493 12.7847 11.6563 12.5625C11.6632 12.3402 11.5834 12.1458 11.4167 11.9791L9.43754 9.99996ZM1.66671 9.99996C1.66671 8.84718 1.88546 7.76385 2.32296 6.74996C2.76046 5.73607 3.35421 4.85413 4.10421 4.10413C4.85421 3.35413 5.73615 2.76038 6.75004 2.32288C7.76393 1.88538 8.84726 1.66663 10 1.66663C11.1528 1.66663 12.2362 1.88538 13.25 2.32288C14.2639 2.76038 15.1459 3.35413 15.8959 4.10413C16.6459 4.85413 17.2396 5.73607 17.6771 6.74996C18.1146 7.76385 18.3334 8.84718 18.3334 9.99996C18.3334 11.1527 18.1146 12.2361 17.6771 13.25C17.2396 14.2638 16.6459 15.1458 15.8959 15.8958C15.1459 16.6458 14.2639 17.2395 13.25 17.677C12.2362 18.1145 11.1528 18.3333 10 18.3333C8.84726 18.3333 7.76393 18.1145 6.75004 17.677C5.73615 17.2395 4.85421 16.6458 4.10421 15.8958C3.35421 15.1458 2.76046 14.2638 2.32296 13.25C1.88546 12.2361 1.66671 11.1527 1.66671 9.99996ZM3.33337 9.99996C3.33337 11.8611 3.97921 13.4375 5.27087 14.7291C6.56254 16.0208 8.13893 16.6666 10 16.6666C11.8612 16.6666 13.4375 16.0208 14.7292 14.7291C16.0209 13.4375 16.6667 11.8611 16.6667 9.99996C16.6667 8.13885 16.0209 6.56246 14.7292 5.27079C13.4375 3.97913 11.8612 3.33329 10 3.33329C8.13893 3.33329 6.56254 3.97913 5.27087 5.27079C3.97921 6.56246 3.33337 8.13885 3.33337 9.99996Z" fill="currentColor"/>
</svg>

<svg xmlns="http://www.w3.org/2000/svg" width="20" height="20" fill="none" viewBox="0 0 20 20">
  <path fill="#201F1F" d="m9.438 10 1.979-1.98a.777.777 0 0 0 .229-.572.849.849 0 0 0-.23-.594.811.811 0 0 0-.593-.25.811.811 0 0 0-.594.25L7.667 9.417a.8.8 0 0 0-.25.583.8.8 0 0 0 .25.583l2.583 2.584a.763.763 0 0 0 .583.24.838.838 0 0 0 .584-.261.88.88 0 0 0 .24-.584.764.764 0 0 0-.24-.583L9.437 10Zm-7.771 0c0-1.153.218-2.236.656-3.25a8.415 8.415 0 0 1 1.781-2.646A8.415 8.415 0 0 1 6.75 2.323 8.115 8.115 0 0 1 10 1.667c1.153 0 2.236.218 3.25.656a8.416 8.416 0 0 1 2.646 1.781 8.415 8.415 0 0 1 1.781 2.646 8.115 8.115 0 0 1 .656 3.25 8.115 8.115 0 0 1-.656 3.25 8.416 8.416 0 0 1-1.781 2.646 8.416 8.416 0 0 1-2.646 1.781 8.114 8.114 0 0 1-3.25.656 8.115 8.115 0 0 1-3.25-.656 8.415 8.415 0 0 1-2.646-1.781 8.416 8.416 0 0 1-1.781-2.646A8.115 8.115 0 0 1 1.667 10Zm1.666 0c0 1.861.646 3.438 1.938 4.73 1.292 1.29 2.868 1.937 4.729 1.937 1.861 0 3.438-.646 4.73-1.938 1.29-1.291 1.937-2.868 1.937-4.729 0-1.861-.646-3.438-1.938-4.73C13.438 3.98 11.861 3.334 10 3.334c-1.861 0-3.437.646-4.73 1.938C3.98 6.562 3.334 8.139 3.334 10Z"/>
</svg>
